src/apps/symbolic/preferences-desktop-screensaver-symbolic.svg

<svg xmlns="http://www.w3.org/2000/svg" width="16" height="16">
    <g fill="#050505" opacity=".7">
        <path d="M10.48 5.83c.32.39.52.89.52 1.43 0 1.25-1.01 2.26-2.26 2.26-.54 0-1.04-.2-1.43-.52a2.637 2.637 0 0 0 2.56 2.02c1.45 0 2.63-1.18 2.63-2.63 0-1.24-.86-2.29-2.02-2.56zM5.5 8.64 5 7.14l-1.5-.5 1.5-.5.5-1.5.5 1.5 1.5.5-1.5.5zM8 4.5a.5.5 0 0 1-.5.5.5.5 0 0 1-.5-.5.5.5 0 0 1 .5-.5.5.5 0 0 1 .5.5Zm5 0a.5.5 0 0 1-.5.5.5.5 0 0 1-.5-.5.5.5 0 0 1 .5-.5.5.5 0 0 1 .5.5Zm-4 2a.5.5 0 0 1-.5.5.5.5 0 0 1-.5-.5.5.5 0 0 1 .5-.5.5.5 0 0 1 .5.5Zm-4 3a.5.5 0 0 1-.5.5.5.5 0 0 1-.5-.5.5.5 0 0 1 .5-.5.5.5 0 0 1 .5.5ZM4.5 14h7a.499.499 0 1 1 0 1h-7a.499.499 0 1 1 0-1z"/>
        <path d="M2 2C.892 2 0 2.892 0 4v7c0 1.108.892 2 2 2h12c1.108 0 2-.892 2-2V4c0-1.108-.892-2-2-2zm0 1h12c.554 0 1 .446 1 1v7c0 .554-.446 1-1 1H2c-.554 0-1-.446-1-1V4c0-.554.446-1 1-1z"/>
    </g>
</svg>

<svg width="16" height="16" version="1.1" xmlns="http://www.w3.org/2000/svg">
 <g fill="#363636">
  <path d="m10.48 5.83c0.32 0.39 0.52 0.89 0.52 1.43 0 1.25-1.01 2.26-2.26 2.26-0.54 0-1.04-0.2-1.43-0.52a2.637 2.637 0 0 0 2.56 2.02c1.45 0 2.63-1.18 2.63-2.63 0-1.24-0.86-2.29-2.02-2.56zm-4.98 2.81-0.5-1.5-1.5-0.5 1.5-0.5 0.5-1.5 0.5 1.5 1.5 0.5-1.5 0.5z"/>
  <path d="M 8,4.5 A 0.5,0.5 0 0 1 7.5,5 0.5,0.5 0 0 1 7,4.5 0.5,0.5 0 0 1 7.5,4 0.5,0.5 0 0 1 8,4.5 Z m 5,0 A 0.5,0.5 0 0 1 12.5,5 0.5,0.5 0 0 1 12,4.5 0.5,0.5 0 0 1 12.5,4 0.5,0.5 0 0 1 13,4.5 Z m -4,2 A 0.5,0.5 0 0 1 8.5,7 0.5,0.5 0 0 1 8,6.5 0.5,0.5 0 0 1 8.5,6 0.5,0.5 0 0 1 9,6.5 Z m -4,3 A 0.5,0.5 0 0 1 4.5,10 0.5,0.5 0 0 1 4,9.5 0.5,0.5 0 0 1 4.5,9 0.5,0.5 0 0 1 5,9.5 Z"/>
  <path d="m4.5 14h7c0.277 0 0.5 0.223 0.5 0.5s-0.223 0.5-0.5 0.5h-7c-0.277 0-0.5-0.223-0.5-0.5s0.223-0.5 0.5-0.5z"/>
  <path d="m2 2c-1.108 0-2 0.892-2 2v7c0 1.108 0.892 2 2 2h12c1.108 0 2-0.892 2-2v-7c0-1.108-0.892-2-2-2zm0 1h12c0.554 0 1 0.446 1 1v7c0 0.554-0.446 1-1 1h-12c-0.554 0-1-0.446-1-1v-7c0-0.554 0.446-1 1-1z"/>
 </g>
</svg>
